X: 4605
T: Bourée Sans Souci
R: barndance
M: 4/4
K: Aminor
E|A>B cd ea2a|gf ed f2 e2|d>c Bd c>B Ac|Bc dc c2 BE|
A>B cd ea2a|ba gf f2 e2|d>c Bd c>B Ac|1 Bc cB A3:|2 Bc cB ABcd||
|:e3 f e3 e|de fd e2 c2|A2 cd ee2e|de fg e4|
e3 f e3 c|de f^g b2 a2|g2 ec e2 cA|1 BccB ABcd:|2 BccB A3||

